icons/svg/shields/h_barrier_hampshire_gate_shield.svg

<?xml version="1.0" encoding="UTF-8" standalone="no"?>
<svg
   xmlns:dc="http://purl.org/dc/elements/1.1/"
   xmlns:cc="http://creativecommons.org/ns#"
   xmlns:rdf="http://www.w3.org/1999/02/22-rdf-syntax-ns#"
   xmlns:svg="http://www.w3.org/2000/svg"
   xmlns="http://www.w3.org/2000/svg"
   xmlns:sodipodi="http://sodipodi.sourceforge.net/DTD/sodipodi-0.dtd"
   xmlns:inkscape="http://www.inkscape.org/namespaces/inkscape"
   width="16"
   height="16"
   viewBox="0 0 16 16"
   fill="none"
   version="1.1"
   id="svg4"
   sodipodi:docname="h_barrier_hampshire_gate_shield.svg"
   inkscape:version="0.92.5 (2060ec1f9f, 2020-04-08)">
  <metadata
     id="metadata10">
    <rdf:RDF>
      <cc:Work
         rdf:about="">
        <dc:format>image/svg+xml</dc:format>
        <dc:type
           rdf:resource="http://purl.org/dc/dcmitype/StillImage" />
        <dc:title></dc:title>
      </cc:Work>
    </rdf:RDF>
  </metadata>
  <defs
     id="defs8" />
  <sodipodi:namedview
     pagecolor="#ffffff"
     bordercolor="#666666"
     borderopacity="1"
     objecttolerance="10"
     gridtolerance="10"
     guidetolerance="10"
     inkscape:pageopacity="0"
     inkscape:pageshadow="2"
     inkscape:window-width="1920"
     inkscape:window-height="1014"
     id="namedview6"
     showgrid="true"
     inkscape:snap-page="true"
     inkscape:zoom="29.5"
     inkscape:cx="3.4552717"
     inkscape:cy="4.6449775"
     inkscape:window-x="1920"
     inkscape:window-y="0"
     inkscape:window-maximized="1"
     inkscape:current-layer="svg4">
    <inkscape:grid
       type="xygrid"
       id="grid887"
       spacingx="1"
       spacingy="1" />
  </sodipodi:namedview>
  <path
     sodipodi:type="inkscape:offset"
     inkscape:radius="1.0169491"
     inkscape:original="M 3.1992188 2.6679688 L 3.1992188 6.4003906 L 2.6679688 6.4003906 L 2.6679688 6.9335938 L 3.1992188 6.9335938 L 3.1992188 9.5996094 L 2.6679688 9.5996094 L 2.6679688 10.132812 L 3.1992188 10.132812 L 3.1992188 13.332031 L 4.2675781 13.332031 L 4.2675781 10.132812 L 5.8671875 10.132812 L 5.8671875 13.332031 L 6.9335938 13.332031 L 6.9335938 10.132812 L 8.8535156 10.132812 L 8.6933594 11.732422 L 8 11.732422 L 8 12.267578 L 8.6386719 12.267578 L 8.5332031 13.332031 L 9.5996094 13.332031 L 9.7070312 12.267578 L 11.732422 12.267578 L 11.732422 13.332031 L 12.800781 13.332031 L 12.800781 12.267578 L 13.332031 12.267578 L 13.332031 11.732422 L 12.800781 11.732422 L 12.800781 4.8007812 L 13.332031 4.8007812 L 13.332031 4.2675781 L 12.800781 4.2675781 L 12.800781 2.6679688 L 11.732422 2.6679688 L 11.732422 4.2675781 L 10.507812 4.2675781 L 10.667969 2.6679688 L 9.5996094 2.6679688 L 9.4414062 4.2675781 L 8.5332031 4.2675781 L 8.5332031 4.8007812 L 9.3867188 4.8007812 L 9.2265625 6.4003906 L 6.9335938 6.4003906 L 6.9335938 2.6679688 L 5.8671875 2.6679688 L 5.8671875 6.4003906 L 4.2675781 6.4003906 L 4.2675781 2.6679688 L 3.1992188 2.6679688 z M 10.453125 4.8007812 L 11.732422 4.8007812 L 11.732422 11.732422 L 9.7597656 11.732422 L 10.453125 4.8007812 z M 4.2675781 6.9335938 L 5.8671875 6.9335938 L 5.8671875 9.5996094 L 4.2675781 9.5996094 L 4.2675781 6.9335938 z M 6.9335938 6.9335938 L 9.1738281 6.9335938 L 8.90625 9.5996094 L 6.9335938 9.5996094 L 6.9335938 6.9335938 z "
     style="clip-rule:evenodd;opacity:0.81199999;vector-effect:none;fill:#ebe7e4;fill-opacity:1;fill-rule:evenodd;stroke-width:0.99999988;stroke-linecap:butt;stroke-linejoin:miter;stroke-miterlimit:4;stroke-dasharray:none;stroke-dashoffset:0;stroke-opacity:1"
     id="path12"
     d="M 3.1992188,1.6503906 A 1.0170508,1.0170508 0 0 0 2.1816406,2.6679688 v 2.8398437 a 1.0170508,1.0170508 0 0 0 -0.53125,0.8925781 v 0.5332032 a 1.0170508,1.0170508 0 0 0 0.53125,0.890625 v 0.8828124 a 1.0170508,1.0170508 0 0 0 -0.53125,0.8925782 v 0.5332026 a 1.0170508,1.0170508 0 0 0 0.53125,0.890626 v 2.308593 a 1.0170508,1.0170508 0 0 0 1.0175782,1.017578 h 1.0683593 a 1.0170508,1.0170508 0 0 0 0.8007813,-0.390625 1.0170508,1.0170508 0 0 0 0.7988281,0.390625 h 1.0664063 a 1.0170508,1.0170508 0 0 0 0.8007812,-0.390625 1.0170508,1.0170508 0 0 0 0.7988281,0.390625 h 1.0664063 a 1.0170508,1.0170508 0 0 0 1.0117186,-0.916015 l 0.01563,-0.148438 h 0.08789 v 0.04687 a 1.0170508,1.0170508 0 0 0 1.017578,1.017578 h 1.068359 a 1.0170508,1.0170508 0 0 0 1.017578,-1.017578 v -0.171875 a 1.0170508,1.0170508 0 0 0 0.53125,-0.892578 v -0.535156 a 1.0170508,1.0170508 0 0 0 -0.53125,-0.890625 V 5.6933594 a 1.0170508,1.0170508 0 0 0 0.53125,-0.8925782 V 4.2675781 a 1.0170508,1.0170508 0 0 0 -0.53125,-0.890625 V 2.6679688 A 1.0170508,1.0170508 0 0 0 12.800781,1.6503906 H 11.732422 A 1.0170508,1.0170508 0 0 0 11.199219,1.8027344 1.0170508,1.0170508 0 0 0 10.667969,1.6503906 H 9.5996094 A 1.0170508,1.0170508 0 0 0 8.5878906,2.5683594 L 8.5195312,3.25 A 1.0170508,1.0170508 0 0 0 7.9511719,3.4335938 V 2.6679688 A 1.0170508,1.0170508 0 0 0 6.9335938,1.6503906 H 5.8671875 A 1.0170508,1.0170508 0 0 0 5.0664062,2.0410156 1.0170508,1.0170508 0 0 0 4.2675781,1.6503906 Z m 4.7519531,6.3007813 h 0.097656 l -0.0625,0.6308593 h -0.035156 z" />
</svg>

<svg width="16" height="16" fill="none" version="1.1" viewBox="0 0 16 16" xmlns="http://www.w3.org/2000/svg">
 <path d="m3.1992 1.6504a1.0171 1.0171 0 0 0-1.0176 1.0176v2.8398a1.0171 1.0171 0 0 0-0.53125 0.89258v0.5332a1.0171 1.0171 0 0 0 0.53125 0.89062v0.88281a1.0171 1.0171 0 0 0-0.53125 0.89258v0.5332a1.0171 1.0171 0 0 0 0.53125 0.89063v2.3086a1.0171 1.0171 0 0 0 1.0176 1.0176h1.0684a1.0171 1.0171 0 0 0 0.80078-0.39062 1.0171 1.0171 0 0 0 0.79883 0.39062h1.0664a1.0171 1.0171 0 0 0 0.80078-0.39062 1.0171 1.0171 0 0 0 0.79883 0.39062h1.0664a1.0171 1.0171 0 0 0 1.0117-0.91602l0.01563-0.14844h0.08789v0.04687a1.0171 1.0171 0 0 0 1.0176 1.0176h1.0684a1.0171 1.0171 0 0 0 1.0176-1.0176v-0.17188a1.0171 1.0171 0 0 0 0.53125-0.89258v-0.53516a1.0171 1.0171 0 0 0-0.53125-0.89062v-5.1484a1.0171 1.0171 0 0 0 0.53125-0.89258v-0.5332a1.0171 1.0171 0 0 0-0.53125-0.89062v-0.70898a1.0171 1.0171 0 0 0-1.0176-1.0176h-1.0684a1.0171 1.0171 0 0 0-0.5332 0.15234 1.0171 1.0171 0 0 0-0.53125-0.15234h-1.0684a1.0171 1.0171 0 0 0-1.0117 0.91797l-0.068359 0.68164a1.0171 1.0171 0 0 0-0.56836 0.18359v-0.76562a1.0171 1.0171 0 0 0-1.0176-1.0176h-1.0664a1.0171 1.0171 0 0 0-0.80078 0.39062 1.0171 1.0171 0 0 0-0.79883-0.39062zm4.752 6.3008h0.097656l-0.0625 0.63086h-0.035156z" clip-rule="evenodd" fill="#ebe7e4" fill-rule="evenodd" opacity=".812"/>
</svg>
